src/icons/folder-obsidian.svg

<?xml version="1.0" encoding="UTF-8" standalone="no"?>
<svg
   version="1.2"
   viewBox="0 0 16 16"
   width="16"
   height="16"
   id="svg1"
   sodipodi:docname="folder-obsidian.svg"
   inkscape:version="1.4 (e7c3feb100, 2024-10-09)"
   xmlns:inkscape="http://www.inkscape.org/namespaces/inkscape"
   xmlns:sodipodi="http://sodipodi.sourceforge.net/DTD/sodipodi-0.dtd"
   xmlns="http://www.w3.org/2000/svg"
   xmlns:svg="http://www.w3.org/2000/svg">
  <defs
     id="defs1" />
  <sodipodi:namedview
     id="namedview1"
     pagecolor="#505050"
     bordercolor="#eeeeee"
     borderopacity="1"
     inkscape:showpageshadow="0"
     inkscape:pageopacity="0"
     inkscape:pagecheckerboard="0"
     inkscape:deskcolor="#505050"
     inkscape:zoom="37.75"
     inkscape:cx="7.986755"
     inkscape:cy="8"
     inkscape:window-width="1316"
     inkscape:window-height="752"
     inkscape:window-x="20"
     inkscape:window-y="20"
     inkscape:window-maximized="0"
     inkscape:current-layer="Layer 1" />
  <title
     id="title1">folder-obsidian</title>
  <style
     id="style1">
		.s0 { fill: #8080a0 } 
		.s1 { fill: #a67cf8 } 
	</style>
  <g
     id="Layer 1">
    <path
       id="path1"
       class="s0"
       d="M 4.1992188 1 C 3.0992187 1 2.4996094 0.99921875 2.0996094 1.1992188 C 1.6996094 1.3992188 1.3992188 1.6996094 1.1992188 2.0996094 C 0.99921875 2.4996094 1 3.0992187 1 4.1992188 L 1 9 C 1 10.4 1.0007812 11.099609 1.3007812 11.599609 C 1.5007812 12.099609 1.9003906 12.499219 2.4003906 12.699219 C 2.9003906 12.999219 3.6 13 5 13 L 8.0195312 13 L 6.7011719 11.417969 L 8.1328125 8.1328125 L 8.3710938 6.2773438 L 11.125 4.0273438 L 12.451172 4.1054688 L 13.980469 5.6367188 C 13.95201 5.0793141 13.880282 4.7021631 13.699219 4.4003906 C 13.499219 3.9003906 13.099609 3.5007813 12.599609 3.3007812 C 12.099609 3.0007813 11.4 3 10 3 L 8.3007812 3 L 8.0996094 3 C 8.0329427 3 7.9670573 2.9670573 7.9003906 2.9003906 L 7.8007812 2.8007812 L 7.1992188 2.1992188 C 6.6992188 1.6992188 6.5007813 1.5003906 6.3007812 1.4003906 C 6.0341146 1.2670573 5.7666667 1.166276 5.5 1.0996094 C 5.3 0.99960938 5.0007813 1 4.3007812 1 L 4.1992188 1 z " />
    <path
       id="arrow"
       class="s1"
       d="m13.7 13.4c0 0.4-0.4 0.7-0.8 0.6-0.6-0.2-1.3-0.4-1.9-0.5h-0.9q0 0-0.1 0 0-0.1-0.1-0.1 0 0-0.1 0 0-0.1-0.1-0.1l-1.5-1.6q-0.1-0.1-0.1-0.2-0.1 0-0.1-0.1 0-0.1 0-0.2 0-0.1 0.1-0.2c0 0 0.9-2.1 1-2.2 0-0.1 0.1-1.1 0.2-1.6q0-0.1 0-0.1 0-0.1 0.1-0.1 0-0.1 0-0.1 0.1 0 0.1-0.1l1.9-1.6q0-0.1 0.2-0.2 0.1 0 0.2 0 0.1 0 0.2 0.1 0.1 0 0.2 0.1l1.6 2q0 0 0 0.1 0.1 0 0.1 0.1 0 0 0 0.1 0 0 0 0.1c0 0.4 0.1 1.1 0.3 1.6q0 0.2 0.1 0.4 0.1 0.1 0.2 0.3 0.1 0.1 0.2 0.3 0.1 0.2 0.2 0.3 0 0 0.1 0.1 0 0 0 0.1 0 0 0 0.1 0 0-0.1 0c-0.1 0.3-0.4 0.7-0.7 1.3q-0.1 0.1-0.2 0.3-0.1 0.1-0.1 0.3-0.1 0.2-0.1 0.3-0.1 0.2-0.1 0.4z" />
  </g>
</svg>

<svg xmlns="http://www.w3.org/2000/svg" width="16" height="16" version="1.2"><path d="M4.2 1c-1.1 0-1.7 0-2.1.2q-.6.3-.9.9c-.2.4-.2 1-.2 2.1V9c0 1.4 0 2.1.3 2.6.2.5.6.9 1.1 1.1.5.3 1.2.3 2.6.3h3.02L6.7 11.418l1.432-3.285.238-1.856 2.754-2.25 1.326.078 1.53 1.532c-.029-.558-.1-.935-.282-1.237-.2-.5-.6-.9-1.1-1.1C12.1 3 11.4 3 10 3H8.1q-.1 0-.2-.1l-.1-.1-.6-.6c-.5-.5-.7-.7-.9-.8a4 4 0 0 0-.8-.3C5.3 1 5 1 4.3 1z" style="fill:#8080a0"/><path d="M13.7 13.4c0 .4-.4.7-.8.6-.6-.2-1.3-.4-1.9-.5h-1q0-.1-.1-.1h-.1q0-.1-.1-.1l-1.5-1.6q-.1-.1-.1-.2-.1 0-.1-.1v-.2q0-.1.1-.2s.9-2.1 1-2.2c0-.1.1-1.1.2-1.6v-.1q0-.1.1-.1v-.1q.1 0 .1-.1l1.9-1.6q0-.1.2-.2h.2q.1 0 .2.1.1 0 .2.1l1.6 2v.1q.1 0 .1.1v.2c0 .4.1 1.1.3 1.6q0 .2.1.4.1.1.2.3.1.1.2.3t.2.3l.1.1v.2h-.1c-.1.3-.4.7-.7 1.3q-.1.1-.2.3-.1.1-.1.3-.1.2-.1.3-.1.2-.1.4" style="fill:#a67cf8"/></svg>
